!!!OTL: Sweet Trinity
!!!ONM: 10.
**kern
*clefG2
*k[f#c#g#]
*A:
*M4/4
*MM80
{2a
4a
4b
=2
2a
4f#
4e
=3
4f#
4e
4a
4c#
=4
2B
4r}
{4c#
=5
2B
4B
4B
=6
4B
2b
4dd
=7
4cc#
4a
4a
4f#
=8
4.e
8r}
{4cc#
4b
=9
2a
4a
4b
=10
4a
4f#
4a
4f#
=11
(4e
4c#)
4a
4c#
=12
2B}
{4B
4c#
=13
2e
4.e
8f#
=14
8e
4.c#
4.g#
8a
=15
(4b
4g#)
2e
=16
2r}
{4b
4b
=17
2cc#
4cc#
4cc#
=18
(4dd
4b)
2g#
=19
2.a}
==
*-
!!!CNT: Folksongs of Maritime Canada
!!!MRD: 1928///-1932///
!!!OCL: Helen Creighton
!!!YOR: Songs and Ballads from Nova Scotia
!!!PPR: J.M. Dent & Sons, Limited
!!!PPP: Toronto, Canada
!!!PDT: 1932///
!!!reprint: Dover Publications, 1992: ISBN 0-486-21703-5
!!!ENC1: Craig Stuart Sapp (music and bibliographic data)                       
!!!ENC2: Marcus Pearce (phrase markings and key designations)                   
!!!ENC3: Darrell Conklin (phrase markings and key designations)   
!!!END: 2002/04/10/
!!!EEV: 2004/06/05
!!!MPN: Mr. Richard Hartlan
!!!PPG: 20
!!!EFL: 10/152
!!!ARE: Canada; Nova Scotia
!!!verses: 8
!!!VTS: 1679397965
